;FLAVOR:Marlin
;TIME:5203
;Filament used: 9.01435m
;Layer height: 0.2
;MINX:8.208
;MINY:21.075
;MINZ:0.2
;MAXX:111.792
;MAXY:98.925
;MAXZ:13.2
;TARGET_MACHINE.NAME:VORON 0
;Generated with Cura_SteamEngine 5.7.0-beta.1
M82 ;absolute extrusion mode
M117 Warmup
G90                                         	;Absolute positioning
G28                      	   	;Home all axes
G1 X1 Y5 Z20 F3000             		;Move nozzle away from bed
M104 S160 				;Pre-heat hotend
M190 S115.0 	;Heat bed and wait
M109 S230 	;Heat hotend and wait
print_start
G92 E0
G92 E0
G1 F6000 E-0.5
;LAYER_COUNT:65
;LAYER:0
M107
G1 F600 Z0.4
G0 F7200 X10.309 Y21.445 Z0.4
;TYPE:SKIRT
G1 F600 Z0.2
G1 F2400 E0
G1 F1800 X10.781 Y21.259 E0.01898
G1 X11.404 Y21.12 E0.04287
G1 X11.78 Y21.088 E0.05699
G1 X12.185 Y21.077 E0.07215
G1 X107.46 Y21.075 E3.63711
G1 X108.194 Y21.087 E3.66458
G1 X108.769 Y21.147 E3.68621
G1 X109.328 Y21.295 E3.70785
G1 X109.856 Y21.53 E3.72948
G1 X110.285 Y21.802 E3.74848
G1 X110.771 Y22.231 E3.77274
G1 X111.094 Y22.622 E3.79172
G1 X111.424 Y23.182 E3.81604
G1 X111.61 Y23.654 E3.83502
G1 X111.748 Y24.276 E3.85886
G1 X111.78 Y24.655 E3.87309
G1 X111.789 Y24.982 E3.88533
G1 X111.792 Y94.577 E6.48941
G1 X111.78 Y95.326 E6.51744
G1 X111.721 Y95.902 E6.53911
G1 X111.595 Y96.393 E6.55808
G1 X111.338 Y96.988 E6.58233
G1 X111.066 Y97.417 E6.60133
G1 X110.687 Y97.854 E6.62298
G1 X110.187 Y98.268 E6.64727
G1 X109.686 Y98.556 E6.66889
G1 X109.214 Y98.742 E6.68787
G1 X108.591 Y98.881 E6.71176
G1 X108.219 Y98.912 E6.72573
G1 X107.815 Y98.923 E6.74085
G1 X12.544 Y98.925 E10.30567
G1 X11.81 Y98.914 E10.33313
G1 X11.236 Y98.855 E10.35472
G1 X10.744 Y98.73 E10.37372
G1 X10.149 Y98.473 E10.39797
G1 X9.662 Y98.16 E10.41963
G1 X9.281 Y97.824 E10.43864
G1 X8.909 Y97.383 E10.46023
G1 X8.578 Y96.824 E10.48454
G1 X8.392 Y96.352 E10.50352
G1 X8.253 Y95.729 E10.5274
G1 X8.22 Y95.331 E10.54235
G1 X8.21 Y94.88 E10.55923
G1 X8.208 Y25.41 E13.15863
G1 X8.219 Y24.677 E13.18606
G1 X8.278 Y24.103 E13.20765
G1 X8.403 Y23.611 E13.22665
G1 X8.66 Y23.016 E13.2509
G1 X8.973 Y22.529 E13.27256
G1 X9.309 Y22.148 E13.29157
G1 X9.751 Y21.776 E13.31318
G1 X10.309 Y21.445 E13.33746
G0 F7200 X10.474 Y21.864
G1 F1800 X10.946 Y21.678 E13.35644
G1 X11.442 Y21.568 E13.37545
G1 X11.793 Y21.538 E13.38863
G1 X12.185 Y21.527 E13.40331
G1 X107.454 Y21.525 E16.96805
G1 X108.152 Y21.535 E16.99417
G1 X108.658 Y21.583 E17.01319
G1 X109.149 Y21.708 E17.03215
G1 X109.615 Y21.91 E17.05115
G1 X110.044 Y22.182 E17.07016
G1 X110.424 Y22.518 E17.08914
G1 X110.747 Y22.909 E17.10811
G1 X111.005 Y23.347 E17.12713
G1 X111.191 Y23.819 E17.14612
G1 X111.3 Y24.314 E17.16508
G1 X111.33 Y24.668 E17.17838
G1 X111.339 Y24.982 E17.19013
G1 X111.342 Y94.571 E19.79399
G1 X111.332 Y95.284 E19.82067
G1 X111.285 Y95.79 E19.83968
G1 X111.159 Y96.281 E19.85865
G1 X110.958 Y96.747 E19.87764
G1 X110.686 Y97.176 E19.89665
G1 X110.35 Y97.556 E19.91563
G1 X109.959 Y97.88 E19.93463
G1 X109.521 Y98.137 E19.95363
G1 X109.049 Y98.323 E19.97261
G1 X108.554 Y98.433 E19.99159
G1 X108.206 Y98.462 E20.00465
G1 X107.815 Y98.473 E20.01929
G1 X12.55 Y98.475 E23.58388
G1 X11.852 Y98.466 E23.61
G1 X11.347 Y98.419 E23.62898
G1 X10.855 Y98.294 E23.64797
G1 X10.389 Y98.093 E23.66696
G1 X9.96 Y97.822 E23.68595
G1 X9.579 Y97.486 E23.70496
G1 X9.256 Y97.096 E23.7239
G1 X8.997 Y96.659 E23.74291
G1 X8.811 Y96.187 E23.76189
G1 X8.701 Y95.691 E23.7809
G1 X8.67 Y95.321 E23.7948
G1 X8.66 Y94.88 E23.8113
G1 X8.658 Y25.416 E26.41048
G1 X8.667 Y24.719 E26.43657
G1 X8.714 Y24.214 E26.45554
G1 X8.839 Y23.722 E26.47454
G1 X9.04 Y23.256 E26.49353
G1 X9.311 Y22.827 E26.51251
G1 X9.647 Y22.446 E26.53152
G1 X10.038 Y22.123 E26.5505
G1 X10.474 Y21.864 E26.56947
G1 F6000 E26.06947
G1 F600 Z0.4
;MESH:Tapa transverter v17.stl
G0 F7200 X25.319 Y37.201 Z0.4
;TYPE:WALL-INNER
G1 F600 Z0.2
G1 F2400 E26.56947
G1 F1800 X25.212 Y37.176 E26.57313
G1 X24.788 Y36.998 E26.58842
G1 X24.644 Y36.907 E26.59409
G1 X24.344 Y36.667 E26.60687
G1 X24.255 Y36.566 E26.61134
G1 X24.027 Y36.258 E26.62409
G1 X23.97 Y36.146 E26.62827
G1 X23.833 Y35.82 E26.64003
G1 X23.791 Y35.631 E26.64647
G1 X23.759 Y35.371 E26.65518
G1 X23.759 Y35.125 E26.66337
G1 X23.791 Y34.865 E26.67208
G1 X23.866 Y34.59 E26.68156
G1 X23.97 Y34.35 E26.69026
G1 X24.095 Y34.138 E26.69844
G1 X24.255 Y33.93 E26.70717
G1 X24.44 Y33.745 E26.71587
G1 X24.644 Y33.589 E26.72442
G1 X24.86 Y33.464 E26.73272
G1 F1769 X25.101 Y33.353 E26.7417
G1 F1629 X25.363 Y33.253 E26.752
G1 F1565.2 X25.744 Y33.223 E26.76662
G1 F1600 X94.248 Y33.223 E29.32988
G1 F1565.2 X94.633 Y33.253 E29.34465
G1 F1629 X94.899 Y33.354 E29.35511
G1 F1773.4 X95.14 Y33.464 E29.36405
G1 F1800 X95.356 Y33.589 E29.37235
G1 X95.56 Y33.745 E29.38089
G1 X95.745 Y33.93 E29.38959
G1 X95.905 Y34.138 E29.39832
G1 X96.035 Y34.363 E29.40696
G1 X96.136 Y34.603 E29.41563
G1 X96.205 Y34.865 E29.42464
G1 X96.237 Y35.125 E29.43335
G1 X96.237 Y35.371 E29.44153
G1 X96.205 Y35.631 E29.45024
G1 X96.162 Y35.821 E29.45672
G1 X96.036 Y36.133 E29.46791
G1 X95.977 Y36.252 E29.47233
G1 X95.745 Y36.566 E29.48532
G1 X95.656 Y36.667 E29.4898
G1 X95.56 Y36.751 E29.49404
G1 X95.285 Y36.957 E29.50547
G1 X95.212 Y36.999 E29.50827
G1 X94.788 Y37.176 E29.52355
G1 X94.682 Y37.201 E29.52717
G1 X94.329 Y37.246 E29.53901
G1 F1773.4 X88.861 Y37.254 E29.7236
G1 F1629 X88.502 Y37.283 E29.73684
G1 F1565.2 X88.088 Y37.273 E29.75268
G1 F1596.5 X59.917 Y37.274 E30.80911
G1 F1589.4 X31.746 Y37.275 E31.87023
G1 F1548.4 X31.432 Y37.286 E31.88238
G1 F1603.6 X31.127 Y37.259 E31.89381
G1 F1751.8 X30.865 Y37.248 E31.90278
G1 F1800 X25.703 Y37.247 E32.07446
G1 X25.319 Y37.201 E32.08733
G1 F6000 E31.58733
G0 F7200 X94.307 Y37.088
G0 X94.854 Y37.045
G0 X94.74 Y36.768
G1 F2400 E32.08733
G1 F1800 X94.611 Y36.807 E32.09181
G1 X94.298 Y36.847 E32.1023
G1 X25.722 Y36.848 E34.38315
G1 X25.326 Y36.792 E34.39645
G1 X24.93 Y36.619 E34.41083
G1 X24.625 Y36.383 E34.42365
G1 X24.371 Y36.054 E34.43748
G1 X24.213 Y35.696 E34.45049
G1 X24.188 Y35.582 E34.45437
G1 X24.156 Y35.322 E34.46309
G1 X24.156 Y35.174 E34.46801
G1 X24.188 Y34.914 E34.47672
G1 X24.233 Y34.749 E34.48241
G1 X24.337 Y34.509 E34.49111
G1 X24.412 Y34.382 E34.49602
G1 X24.572 Y34.174 E34.50474
G1 X24.683 Y34.063 E34.50997
G1 X24.887 Y33.907 E34.51851
G1 X25.016 Y33.832 E34.52347
G1 X25.26 Y33.728 E34.53229
G1 X25.392 Y33.688 E34.53688
G1 X25.667 Y33.652 E34.5461
G1 X94.323 Y33.652 E36.82961
G1 X94.579 Y33.684 E36.83819
G1 X94.74 Y33.728 E36.84374
G1 X94.984 Y33.832 E36.85257
G1 X95.113 Y33.907 E36.85753
G1 X95.317 Y34.063 E36.86607
G1 X95.428 Y34.174 E36.87129
G1 X95.588 Y34.382 E36.88002
G1 X95.666 Y34.517 E36.88521
G1 X95.766 Y34.757 E36.89385
G1 X95.808 Y34.914 E36.89926
G1 X95.84 Y35.174 E36.90797
G1 X95.84 Y35.322 E36.91289
G1 X95.808 Y35.582 E36.92161
G1 X95.782 Y35.696 E36.9255
G1 X95.631 Y36.051 E36.93833
G1 X95.375 Y36.383 E36.95227
G1 X95.027 Y36.644 E36.96674
G1 X94.74 Y36.768 E36.97714
G1 F6000 E36.47714
G0 F7200 X94.854 Y37.045
G0 X96.291 Y35.959
G0 X95.874 Y33.834
G0 X94.623 Y33.014
G0 X94.999 Y32.955
G0 X100.921 Y32.683
G1 F2400 E36.97714
G1 F1800 X100.789 Y32.709 E36.98161
G1 X100.485 Y32.746 E36.9918
G1 F1773.4 X95.021 Y32.754 E37.17626
G1 F1629 X94.662 Y32.783 E37.18949
G1 F1565.2 X94.248 Y32.773 E37.20533
G1 F1596.5 X59.915 Y32.774 E38.49285
G1 F1589.4 X25.582 Y32.775 E39.78607
G1 F1555.1 X25.333 Y32.783 E39.79567
G1 F1629 X24.979 Y32.755 E39.80872
G1 F1769 X24.714 Y32.748 E39.81769
G1 F1800 X19.543 Y32.747 E39.98968
G1 X19.211 Y32.709 E40.00079
G1 X19.082 Y32.684 E40.00516
G1 X18.943 Y32.636 E40.01005
G1 X18.699 Y32.532 E40.01887
G1 X18.492 Y32.412 E40.02683
G1 X18.284 Y32.256 E40.03548
G1 X18.084 Y32.056 E40.04489
G1 X17.928 Y31.848 E40.05353
G1 X17.81 Y31.646 E40.06131
G1 X17.706 Y31.406 E40.07001
G1 X17.639 Y31.181 E40.07782
G1 X17.599 Y30.871 E40.08822
G1 X17.592 Y30.748 E40.09232
G1 X17.631 Y30.365 E40.10512
G1 X17.706 Y30.09 E40.1146
G1 X17.81 Y29.85 E40.1233
G1 X17.904 Y29.68 E40.12976
G1 X18.083 Y29.44 E40.13972
G1 X18.284 Y29.24 E40.14915
G1 X18.492 Y29.084 E40.1578
G1 X18.699 Y28.964 E40.16576
G1 X18.943 Y28.86 E40.17458
G1 X19.163 Y28.794 E40.18222
G1 X19.584 Y28.748 E40.1963
G1 X100.408 Y28.748 E42.88452
G1 X100.788 Y28.787 E42.89723
G1 X101.062 Y28.862 E42.90668
G1 X101.302 Y28.966 E42.91537
G1 X101.504 Y29.084 E42.92316
G1 X101.712 Y29.24 E42.9318
G1 X101.913 Y29.44 E42.94123
G1 X102.092 Y29.681 E42.95122
G1 X102.186 Y29.85 E42.95765
G1 X102.29 Y30.09 E42.96635
G1 X102.365 Y30.365 E42.97583
G1 X102.404 Y30.748 E42.98864
G1 X102.397 Y30.871 E42.99273
G1 X102.358 Y31.181 E43.00313
G1 X102.29 Y31.406 E43.01094
G1 X102.186 Y31.646 E43.01964
G1 X102.068 Y31.848 E43.02742
G1 X101.913 Y32.056 E43.03605
G1 X101.713 Y32.257 E43.04548
G1 X101.505 Y32.413 E43.05413
G1 X101.302 Y32.53 E43.06192
G1 X101.062 Y32.634 E43.07062
G1 X100.921 Y32.683 E43.07559
G0 F7200 X101.143 Y32.163
G1 F1800 X100.818 Y32.297 E43.08728
G1 X100.455 Y32.347 E43.09947
G1 X19.562 Y32.348 E45.78998
G1 X19.183 Y32.297 E45.8027
G1 X18.856 Y32.164 E45.81444
G1 X18.732 Y32.092 E45.81921
G1 X18.524 Y31.936 E45.82786
G1 X18.404 Y31.816 E45.8335
G1 X18.248 Y31.608 E45.84215
G1 X18.177 Y31.487 E45.84681
G1 X18.073 Y31.247 E45.85551
G1 X18.033 Y31.112 E45.8602
G1 X17.992 Y30.748 E45.87238
G1 X18.028 Y30.414 E45.88355
G1 X18.073 Y30.249 E45.88924
G1 X18.177 Y30.009 E45.89794
G1 X18.234 Y29.907 E45.90183
G1 X18.403 Y29.68 E45.91124
G1 X18.524 Y29.56 E45.91691
G1 X18.732 Y29.404 E45.92556
G1 X18.856 Y29.332 E45.93033
G1 X19.1 Y29.228 E45.93915
G1 X19.232 Y29.188 E45.94374
G1 X19.584 Y29.148 E45.95552
G1 X100.483 Y29.152 E48.64623
G1 X100.739 Y29.184 E48.65481
G1 X100.903 Y29.229 E48.66047
G1 X101.143 Y29.333 E48.66917
G1 X101.264 Y29.404 E48.67383
G1 X101.472 Y29.56 E48.68248
G1 X101.593 Y29.68 E48.68815
G1 X101.763 Y29.907 E48.69758
G1 X101.819 Y30.009 E48.70145
G1 X101.923 Y30.249 E48.71015
G1 X101.968 Y30.414 E48.71584
G1 X102.004 Y30.748 E48.72701
G1 X101.964 Y31.112 E48.73919
G1 X101.923 Y31.247 E48.74388
G1 X101.819 Y31.487 E48.75258
G1 X101.748 Y31.608 E48.75725
G1 X101.593 Y31.816 E48.76588
G1 X101.473 Y31.937 E48.77155
G1 X101.265 Y32.093 E48.78019
G1 X101.143 Y32.163 E48.78487
G1 F6000 E48.28487
G0 F7200 X101.258 Y32.444
G0 X100.499 Y32.906
G0 X95.017 Y32.922
G0 X94.623 Y33.014
G0 X96.364 Y34.848
G0 X96.237 Y36.114
G0 X94.342 Y37.406
G0 X88.857 Y37.422
G0 X88.463 Y37.514
G0 X90.204 Y39.348
G0 X90.074 Y40.618
G0 X88.179 Y41.906
G0 X82.697 Y41.922
G0 X82.303 Y42.014
G0 X84.044 Y43.848
G0 X83.926 Y44.994
G0 X82.471 Y46.175
G1 F2400 E48.78487
G1 F1800 X82.368 Y46.2 E48.7884
G1 X81.987 Y46.247 E48.80117
G1 X38.016 Y46.247 E50.26365
G1 X37.616 Y46.197 E50.27705
G1 X37.495 Y46.165 E50.28122
G1 X37.129 Y46.009 E50.29445
G1 X36.996 Y45.93 E50.2996
G1 X36.722 Y45.724 E50.311
G1 X36.623 Y45.629 E50.31556
G1 X36.394 Y45.331 E50.32806
G1 X36.325 Y45.219 E50.33244
G1 X36.154 Y44.821 E50.34684
G1 X36.111 Y44.631 E50.35332
G1 X36.079 Y44.371 E50.36204
G1 X36.079 Y44.125 E50.37022
G1 X36.111 Y43.865 E50.37893
G1 X36.186 Y43.59 E50.38841
G1 X36.29 Y43.35 E50.39711
G1 X36.408 Y43.148 E50.40489
G1 X36.564 Y42.94 E50.41354
G1 X36.763 Y42.739 E50.42295
G1 X36.972 Y42.584 E50.4316
G1 X37.174 Y42.466 E50.43938
G1 F1643.8 X37.633 Y42.257 E50.45775
G1 F1555.1 X38.064 Y42.223 E50.47439
G1 F1600 X81.928 Y42.223 E52.11568
G1 F1565.2 X82.313 Y42.253 E52.13045
G1 F1629 X82.579 Y42.354 E52.14091
G1 F1773.4 X82.82 Y42.464 E52.14985
G1 F1800 X83.036 Y42.589 E52.15815
G1 X83.24 Y42.745 E52.1667
G1 X83.425 Y42.93 E52.1754
G1 X83.585 Y43.138 E52.18413
G1 X83.715 Y43.363 E52.19277
G1 X83.816 Y43.603 E52.20143
G1 X83.885 Y43.865 E52.21044
G1 X83.917 Y44.125 E52.21915
G1 X83.917 Y44.371 E52.22733
G1 X83.885 Y44.631 E52.23605
G1 X83.842 Y44.821 E52.24253
G1 X83.662 Y45.243 E52.25779
G1 X83.595 Y45.345 E52.26185
G1 X83.373 Y45.629 E52.27383
G1 X83.298 Y45.703 E52.27734
G1 X82.95 Y45.966 E52.29185
G1 X82.87 Y46.01 E52.29488
G1 X82.471 Y46.175 E52.30924
G0 F7200 X82.383 Y45.783
G1 F1800 X82.259 Y45.812 E52.31348
G1 X81.964 Y45.848 E52.32336
G1 X38.037 Y45.848 E53.78438
G1 X37.694 Y45.805 E53.79588
G1 X37.621 Y45.786 E53.79839
G1 X37.306 Y45.65 E53.8098
G1 X37.226 Y45.603 E53.81289
G1 X36.989 Y45.426 E53.82273
G1 X36.919 Y45.36 E53.82592
G1 X36.678 Y45.031 E53.83949
G1 X36.534 Y44.696 E53.85162
G1 X36.508 Y44.582 E53.85551
G1 X36.476 Y44.322 E53.86422
G1 X36.476 Y44.174 E53.86914
G1 X36.508 Y43.914 E53.87785
G1 X36.553 Y43.749 E53.88354
G1 X36.657 Y43.509 E53.89224
G1 X36.728 Y43.388 E53.89691
G1 X36.884 Y43.18 E53.90556
G1 X37.003 Y43.059 E53.9112
G1 X37.212 Y42.904 E53.91986
G1 X37.333 Y42.833 E53.92452
G1 X37.573 Y42.729 E53.93322
G1 X37.708 Y42.688 E53.93791
G1 X37.988 Y42.652 E53.9473
G1 X82.003 Y42.652 E55.41125
G1 X82.259 Y42.684 E55.41983
G1 X82.42 Y42.728 E55.42538
G1 X82.664 Y42.832 E55.4342
G1 X82.793 Y42.907 E55.43917
G1 X82.997 Y43.063 E55.44771
G1 X83.108 Y43.174 E55.45293
G1 X83.268 Y43.382 E55.46166
G1 X83.346 Y43.517 E55.46684
G1 X83.446 Y43.757 E55.47549
G1 X83.488 Y43.914 E55.48089
G1 X83.52 Y44.174 E55.48961
G1 X83.52 Y44.322 E55.49453
G1 X83.488 Y44.582 E55.50324
G1 X83.462 Y44.696 E55.50713
G1 X83.305 Y45.061 E55.52035
G1 X83.077 Y45.36 E55.53285
G1 X83.032 Y45.405 E55.53497
G1 X82.761 Y45.612 E55.54631
G1 X82.693 Y45.651 E55.54892
G1 X82.383 Y45.783 E55.56013
G1 F6000 E55.06013
G1 F600 Z0.4
G0 F7200 X76.076 Y59.442 Z0.4
G1 F600 Z0.2
G1 F2400 E55.56013
G1 F1800 X75.909 Y59.44 E55.56568
G1 X75.389 Y59.367 E55.58315
G1 X75.269 Y59.332 E55.5873
G1 X74.763 Y59.115 E55.60562
G1 X74.644 Y59.038 E55.61033
G1 X74.241 Y58.724 E55.62732
G1 X74.174 Y58.653 E55.63057
G1 X73.849 Y58.223 E55.6485
G1 X73.776 Y58.082 E55.65378
G1 X73.58 Y57.588 E55.67145
G1 X73.555 Y57.456 E55.67592
G1 X73.506 Y57.061 E55.68916
G1 X73.501 Y56.9 E55.69452
G1 X73.555 Y56.433 E55.71015
G1 X73.625 Y56.17 E55.71921
G1 X73.802 Y55.75 E55.73436
G1 X73.906 Y55.583 E55.74091
G1 X74.214 Y55.191 E55.75749
G1 X74.271 Y55.136 E55.76012
G1 X74.638 Y54.851 E55.77558
G1 X74.746 Y54.778 E55.77991
G1 X74.867 Y54.719 E55.78439
G1 X75.227 Y54.571 E55.79734
G1 X75.349 Y54.53 E55.80162
G1 X75.476 Y54.504 E55.80593
G1 X75.868 Y54.452 E55.81908
G1 X76 Y54.444 E55.82348
G1 X76.133 Y54.452 E55.82791
G1 X76.521 Y54.504 E55.84093
G1 X76.648 Y54.53 E55.84524
G1 X76.769 Y54.571 E55.84949
G1 X77.129 Y54.719 E55.86244
G1 X77.25 Y54.778 E55.86692
G1 X77.358 Y54.851 E55.87125
G1 X77.749 Y55.158 E55.88779
G1 X77.817 Y55.23 E55.89108
G1 X78.15 Y55.67 E55.90943
G1 X78.2 Y55.763 E55.91295
G1 X78.389 Y56.215 E55.92924
G1 X78.438 Y56.41 E55.93593
G1 X78.494 Y56.875 E55.95151
G1 X78.495 Y56.999 E55.95563
G1 X78.429 Y57.532 E55.97349
G1 X78.395 Y57.655 E55.97774
G1 X78.172 Y58.18 E55.99671
G1 X78.09 Y58.305 E56.00168
G1 X77.787 Y58.692 E56.01803
G1 X77.669 Y58.798 E56.0233
G1 X77.361 Y59.034 E56.03621
G1 X77.241 Y59.113 E56.04099
G1 X76.774 Y59.315 E56.05791
G1 X76.521 Y59.384 E56.06663
G1 X76.076 Y59.442 E56.08156
G0 F7200 X76.046 Y59.043
G1 F1800 X75.945 Y59.042 E56.08492
G1 X75.478 Y58.977 E56.1006
G1 X75.406 Y58.956 E56.1031
G1 X74.957 Y58.765 E56.11933
G1 X74.57 Y58.481 E56.13529
G1 X74.459 Y58.369 E56.14054
G1 X74.189 Y58.012 E56.15542
G1 X73.967 Y57.486 E56.17441
G1 X73.904 Y57.014 E56.19025
G1 X73.9 Y56.918 E56.19345
G1 X73.952 Y56.482 E56.20805
G1 X73.994 Y56.324 E56.21349
G1 X74.161 Y55.926 E56.22784
G1 X74.223 Y55.827 E56.23173
G1 X74.52 Y55.45 E56.24769
G1 X74.947 Y55.124 E56.26556
G1 X75.452 Y54.916 E56.28372
G1 X76 Y54.844 E56.30211
G1 X76.544 Y54.916 E56.32036
G1 X77.049 Y55.124 E56.33852
